X:974
T:Reel 974
M:4/4
K:Dmaj
L:1/8
D2FD ADFD|D2FD EDCE|D2FD ADFD|EFGF GFGE|FAAD  (3FGD EC|D2FD GFGE|FAAc  (3Bcd cA|GFEF GABc|dAAA dced|cAAB cdec|dAAc dfed|cABc dcBc|dAAc dfed|cAAB cde2|fdec dcBd|cABG EFGE|
